!!!!SEGMENT: pl-kk--kk-i-350--008_anonim--alleluia-assumpta-est-maria.krn
!!!cenid: 17xx:2068
!!!COM: Anonim
!!!COM-rismID: pe30004985
!!!CDT:
!!!CNT:
!!!OTL: Alleluia assumpta est Maria
!!!PDT:
!!!AGN: Sacred
!!!SMS-siglum: PL-Kk
!!!SMS-shelfmark: Kk.I.350
!!!SMS-shelfwork: 008 W
!!!SMS-variant:
!!!SMS-altvar:
!!!NIFC-rismSourceID: 1001145771
!!!NIFC-islandoraID: pl-kk:5809
!!!URL-pdf-islandora: https://repozytorium.nifc.pl/islandora/object/pl-kk%3A5809/datastream/PDF/view
!!!URL-scan: https://polish.musicsources.pl/pl/lokalizacje/galeria/rekopisy/5966 @EN{Scan on Polish Music Herritage in Open Access Website} @PL{Skany w portalu Dziedzictwo Muzyki Polskiej w otwartym dostępie}
!!!ONB-nifc: UWAGA: utwory w zbiorze: 1. Gaudeamus, 2. Alleluia assumpta est Maria, 3. Surge propera, 4. Gaudeamus, 5. Propter veritatem, 6. Quae est ista, 7. Gaudeamus omnes, 8. Alleluia assumpta est Maria, 9. Nigra sum
!!!AIN: 1 alto 1 empty 1 tenor 1 vox
!!!key:
**kern	**text	**kern	**text	**kern	**text	**kern	**text
*part4	*part4	*part3	*part3	*part2	*part2	*part1	*part1
*staff4	*staff4	*staff3	*staff3	*staff2	*staff2	*staff1	*staff1
*Iempty	*	*Itenor	*	*Ialto	*	*Ivox	*
*I"Baſso E ripieno	*	*I"Tenore	*	*I"Alto	*	*I"Canto	*
*I'B rip	*	*I'T	*	*I'A	*	*I'S	*
*clefF4	*	*clefC4	*	*clefC3	*	*clefC1	*
*k[]	*	*k[]	*	*k[]	*	*k[]	*
*C:	*	*C:	*	*C:	*	*C:	*
*M3/2	*	*M3/2	*	*M3/2	*	*M3/2	*
=1	=1	=1	=1	=1	=1	=1	=1
*	*	*	*	*2\right	*	*2\right	*
2C/	Al-	2G/	Al-	2e\	Al-	2cc\	Al-
2E\	-le-	2G/	-le-	2e\	-le-	2cc\	-le-
*2\right	*	*	*	*	*	*	*
[2G\	-lu-	2G/	-lu-	2d\	-lu-	2b\	-lu-
=2	=2	=2	=2	=2	=2	=2	=2
*	*	*2\right	*	*	*	*	*
2G\]	.	2B\	-ia	1f\	-ia	1dd\	-ia
2B\	-ia	2G/	.	.	.	.	.
2c\	al-	2G/	al-	2e\	al-	2cc\	al-
=3	=3	=3	=3	=3	=3	=3	=3
2F\	-le-	2A/	-le-	2f\	-le-	2dd\	-le-
2G\	-lu-	1G/	-lu-	2e\	-lu-	2cc\	-lu-
2GG/	.	.	.	2d\	.	2b\	.
=4	=4	=4	=4	=4	=4	=4	=4
2C/	-ia	2G/	-ia	2e\	-ia	2cc\	-ia
2r	.	2r	.	2r	.	2r	.
2r	.	2r	.	4c\	As-	2r	.
.	.	.	.	4e\	.	.	.
=5	=5	=5	=5	=5	=5	=5	=5
2r	.	2r	.	2g\	-sum-	2r	.
2r	.	2r	.	2g\	-pta	2r	.
2G\	As-	4B\	As-	2f\	Aſ-	4dd\	As-
.	.	4d\	.	.	.	4b\	.
!LO:LB:g=original	!	!LO:LB:g=original	!	!	!	!	!
=6	=6	=6	=6	=6	=6	=6	=6
2c\	-sum-	2G/	-sum-	2e\	-sum-	2cc\	-sum-
2c\	-pta	2G/	-pta	2e\	-pta	2cc\	-pta
2G\	est	2G/	est	2d\	est	2b\	est
!	!	!	!	!LO:LB:g=original	!	!LO:LB:g=original	!
=7	=7	=7	=7	=7	=7	=7	=7
4C/	Ma-	1.G/	Ma-	4e\	Ma-	4ee\	Ma-
4BB/	.	.	.	4d\	.	4dd\	.
4C/	.	.	.	4e\	.	4cc\	.
4D/	.	.	.	4f\	.	4b\	.
4E/	.	.	.	4g\	.	4cc\	.
4F/	.	.	.	4a\	.	4dd\	.
=8	=8	=8	=8	=8	=8	=8	=8
4G\	-ri-	4B\	-ri-	2g\	-ri-	2dd\	-ri-
4F\	.	4A\	.	.	.	.	.
4G\	-a	4B\	-a	2g\	-a	2dd\	-a
4A\	.	4c\	.	.	.	.	.
4B\	in	4d\	in	2g\	in	4b\	in
4G\	.	4B\	.	.	.	4dd\	.
=9	=9	=9	=9	=9	=9	=9	=9
4c\	cae-	1c\	cae-	1g\	cae-	1ee\	cae-
4G\	.	.	.	.	.	.	.
4E\	.	.	.	.	.	.	.
4G\	.	.	.	.	.	.	.
2C/	-lum	2c\	-lum	2g\	-lum	2ee\	-lum
=10	=10	=10	=10	=10	=10	=10	=10
2G\	gau-	2B\	gau-	2g\	gau-	2dd\	gau-
2B\	-det	2d\	-det	2g\	-det	2dd\	-det
2G\	e-	2B\	e-	2g\	e-	2dd\	e-
!LO:LB:g=original	!	!	!	!	!	!	!
=11	=11	=11	=11	=11	=11	=11	=11
2.d\	-xer-	2.B\	-xer-	2.g\	-xer-	2.dd\	-xer-
4B\	-ci-	4G\	-ci-	4g\	-ci-	4dd\	-ci-
2G\	-tus	2B\	-tus	2g\	-tus	2dd\	-tus
=12	=12	=12	=12	=12	=12	=12	=12
4c\	An-	4e\	An-	1g\	An-	4cc\	An-
4B\	.	4d\	.	.	.	4dd\	.
4A\	.	4c\	.	.	.	4ee\	.
4G\	.	4B\	.	.	.	4dd\	.
!	!	!LO:LB:g=original	!	!	!	!	!
4F\	.	4d\	.	2g\	-ge-	4ff\	.
4E\	-ge-	4c\	-ge-	.	.	4ee\	-ge-
!	!	!	!	!LO:LB:g=original	!	!LO:LB:g=original	!
=13	=13	=13	=13	=13	=13	=13	=13
2G\	-lo-	2c\	-lo-	2g\	-lo-	2ee\	-lo-
2GG/	-rum	2B\	-rum	2g\	-rum	2dd\	-rum
2r	.	2r	.	2r	.	2r	.
=14	=14	=14	=14	=14	=14	=14	=14
4G\	gau-	4B\	gau-	2d\	gau-	2b\	gau-
4B\	.	4G\	.	.	.	.	.
4d\	-det	4B\	-det	2f\	-det	2dd\	-det
4B\	.	4G\	.	.	.	.	.
4G\	e-	4B\	e-	2d\	e-	2b\	e-
4B\	.	4G\	.	.	.	.	.
=15	=15	=15	=15	=15	=15	=15	=15
4c\	-xer-	1G/	-xer-	4e\	-xer-	1cc\	-xer-
4B\	.	.	.	4d\	.	.	.
4A\	.	.	.	4c\	.	.	.
4G\	.	.	.	4B\	.	.	.
4F\	-ci-	4G/	-ci-	4d\	-ci-	4b\	-ci-
4E\	-tus	4G/	-tus	4c\	-tus	4cc\	-tus
!LO:LB:g=original	!	!	!	!	!	!	!
=16	=16	=16	=16	=16	=16	=16	=16
4F\	an-	4A/	an-	4d\	an-	4a\	an-
4D\	-ge-	4A/	-ge-	4f\	-ge-	4dd\	-ge-
2G\	-lo-	1G/	-lo-	2e\	-lo-	2cc\	-lo-
2GG/	.	.	.	2d\	.	2b\	.
=17	=17	=17	=17	=17	=17	=17	=17
2C/	-rum	2G/	-rum	2e\	-rum	2cc\	-rum
2E/	al-	2G/	al-	2c\	al-	2cc\	al-
2C/	-le-	2E/	-le-	2e\	-le-	2cc\	-le-
=18	=18	=18	=18	=18	=18	=18	=18
1F\	-lu-	1A\	-lu-	1f\	-lu-	1cc\	-lu-
2F\	-ia	2A/	-ia	2f\	-ia	2cc\	-ia
!	!	!LO:LB:g=original	!	!LO:LB:g=original	!	!	!
=19	=19	=19	=19	=19	=19	=19	=19
2D\	al-	2F#X/	Al-	1a\	al-	1dd\	al-
2F#X\	.	2A/	.	.	.	.	.
2D\	-le-	2F#/	-le-	2a\	-le-	2dd\	-le-
!	!	!	!	!	!	!LO:LB:g=original	!
=20	=20	=20	=20	=20	=20	=20	=20
1G\	-lu-	1B\	-lu-	1g\	-lu-	1dd\	-lu-
2G\	-ia	2B\	-ia	2g\	-ia	2dd\	-ia
=21	=21	=21	=21	=21	=21	=21	=21
2G\	al-	2B\	al-	1g\	al-	2dd\	al-
2B\	.	2d\	.	.	.	2ff\	.
2G\	-le-	2B\	-le-	2g\	-le-	2dd\	-le-
=22	=22	=22	=22	=22	=22	=22	=22
2c\	-lu-	2e\	-lu-	2g\	-lu-	1g\	-lu-
2G\	.	2d\	.	2f\	.	.	.
2E\	-ia	2c\	-ia	2e\	-ia	2g/	-ia
!LO:LB:g=original	!	!	!	!	!	!	!
=23	=23	=23	=23	=23	=23	=23	=23
2F\	al-	2d\	al-	2f\	al-	2a\	al-
2G\	le-	2c\	le-	2e\	le-	2g\	le-
2GG/	-lu-	2B\	-lu-	2d\	-lu-	2g\	-lu-
=24	=24	=24	=24	=24	=24	=24	=24
1C/	-ia	1.c\	-ia	1e\	-ia	1.g\	-ia
2r	.	.	.	2r	.	.	.
==	==	==	==	==	==	==	==
*-	*-	*-	*-	*-	*-	*-	*-
!!!system-decoration: [(s1,s2,s3,s4)]
!!!EED: Leszek Kubiak
!!!EEV: 2021-02-26
!!!ENC: Tomasz Grochalski
!!!END: 2021-02-18
